X:1
T: The Market Girl
C:
R:Jig
Q:180
K:G
M:6/8
L:1/16
D2E2F2 G2B2G2|A2G2A2 B2G2E2|D2E2F2 G4d2|A2E2E2 G2E2E2|D2E2F2 G2B2d2|A2G2A2 B4g2|g2f2e2 d2B2G2|A2G2E2 G2E2D2|
D2E2F2 G2B2G2|A2G2A2 B2G2E2|D2E2F2 G4d2|A2E2E2 G2E2E2|D2E2F2 G2B2d2|A2G2A2 B4g2|g2f2e2 d2B2G2|A2G2E2 G2E2D2|
B2d2d2 d2B2d2|efg2e2 d2B2G2|B2d2d2 d2c2B2|A2G2E2 G2E2D2|B2d2d2 d4f2|e2d2B2 d2e2f2|g2f2e2 d2c2B2|A2G2E2 G2E2D2|
B2d2d2 d2B2d2|efg2e2 d2B2G2|B2d2d2 d2c2B2|A2G2E2 G2E2D2|B2d2d2 d4f2|e2d2B2 d2e2f2|g2f2e2 d2c2B2|A2G2E2 G2E2D2||
